X: 104
T: Davey Come Back And Act Like You Oughta
B: canberra pickers and fiddlers
B: old time tunes update
B: tunes
M:C|
L:1/8
Q: 1/4=100
K:Adorian
V:1 
E[GA]-|[AA][AA][A2A2] +slide+Sc2c2|AcAG E2 E[GA]-|[A2A2][A2A2] ABcd|[e3e3][ee][e2e2]+slide+[e2e2]-|
[ee][ee]  [e2e2][d2e2][c2e2]|1AcAG E2ED|A,2A,2 A,B, G,2|A,3A, A,2:|
|2AcAG E2 EE|+slide+[A2A2][A2A2](cA) G2|+slide+[A3A3][AA] [A2A2]||
[A2A2]-|:[A2A2]AG A-cd2|g2g2 e2d2|e2aaa2 a2|bagg eded|+slide+[e3e3][ee] [e2e2][e2e2]|
[M:3/2]gedd =cdcc A2 GG|[M:C|] A3A cAGG| [GA]-[A2A2][AA] [A2A2] AA|[M:2/4]c-de2|
g2g2 e2d2|e2aaa2 a2|bagg eded|+slide+[e3e3][ee] [e2e2][e2e2]|
[M:3/2]gedd =cdcc A2 GG|[M:C|] A3A cAGG| [GA]-[A2A2][AA] [A2A2] AAS||
|[M:2/4]c2c2|[M:C|]AcAG E2...
% abcbook-tune_id 67a7d9eca41ae8c8417615c8
% abcbook-tune_composer_id 
% abcbook-link-0 https://www.youtube.com/watch?v=tpPYqiVwfpE
% abcbook-link-title-0 Davy Come Back and Act Like You Oughta
% abcbook-boost 0
% abcbook-difficulty 0
% abcbook-tags old time tunes
% abcbook-tablature 
% abcbook-transpose 
% abcbook-tuning GDAE
% abcbook-lastupdated 1739273582400
% abcbook-src-url 
% abcbook-soundfonts 
% abcbook-repeats 1


